dist/svg/static/car-handover-large.svg

<svg xmlns="http://www.w3.org/2000/svg" width="48" height="48" viewBox="0 0 48 48"><g fill="none" stroke="currentColor" stroke-miterlimit="10"><path d="M30.5 29l11.594-3.493s5.406-1.215 5.406 1.785c0 2.541-2.424 3.53-4.091 4.293-5.978 2.735-15.038 7.013-15.038 7.013S23.833 40.5 19 40.5H.5v-9c5 0 3.64-.752 8-3 2.595-1.338 5.881-2 8.917-2H28.09a2.5 2.5 0 0 1 0 5H15"/><circle cx="33.667" cy="19.694" r="2.806"/><circle cx="16.167" cy="19.694" r="2.806"/><path d="M30.979 20.5H18.837"/><path stroke-linejoin="round" d="M13.548 20.653C10.22 20.653 9.5 19.5 9.5 19.5v-5.057l5.751-3.176S17.585 9.5 22.972 9.5s8.663 3.218 8.663 3.218l6.508 2.12s1.372.257 2.05 1.72c.3.649.307 1.569.307 2.557V20.5h-4.145"/></g></svg>

<?xml version="1.0" encoding="UTF-8" standalone="no"?>
<svg width="48px" height="48px" viewBox="0 0 48 48" version="1.1" xmlns="http://www.w3.org/2000/svg" xmlns:xlink="http://www.w3.org/1999/xlink">
    <!-- Generator: sketchtool 46.2 (44496) - http://www.bohemiancoding.com/sketch -->
    <title>car-handover-large</title>
    <desc>Created with sketchtool.</desc>
    <defs></defs>
    <g id="icons-published" stroke="none" stroke-width="1" fill="none" fill-rule="evenodd">
        <g id="briefing" transform="translate(-1440.000000, -282.000000)"></g>
        <g id="car-handover-large" stroke="#000000">
            <path d="M30.5,29 L42.1,25.5 C42.1,25.5 47.5,24.3 47.5,27.3 C47.5,29.8 45.1,30.8 43.4,31.6 C37.4,34.3 28.4,38.6 28.4,38.6 C28.4,38.6 23.9,40.5 19,40.5 L0.5,40.5 L0.5,31.5 C5.5,31.5 4.1,30.7 8.5,28.5 C11.1,27.2 14.4,26.5 17.4,26.5 L28.1,26.5 C29.5,26.5 30.6,27.6 30.5,29 C30.6,30.4 29.5,31.5 28.1,31.5 L15,31.5" id="Shape"></path>
            <circle id="Oval" cx="33.7" cy="19.7" r="2.8"></circle>
            <circle id="Oval" cx="16.2" cy="19.7" r="2.8"></circle>
            <path d="M31,20.5 L18.8,20.5" id="Shape"></path>
            <path d="M13.5,20.7 C10.2,20.7 9.5,19.5 9.5,19.5 L9.5,14.4 L15.3,11.2 C15.3,11.2 17.6,9.4 23,9.4 C28.4,9.4 31.7,12.6 31.7,12.6 L38.2,14.7 C38.2,14.7 39.6,15 40.2,16.4 C40.5,17 40.5,18 40.5,19 L40.5,20.4 L36.4,20.4" id="Shape" stroke-linejoin="round"></path>
        </g>
    </g>
</svg>
